X:1
T:Jep Dillentent
T:Valentin Haussmann
T:Source : Tricinia---Johann-Jacob Gastoldi und anderer Autorn---Nürnberg---P.Kauffmann---1607. Editor : André Vierendeels (27/03/17).
T:Notes : Original clefs : G2, G2, F4 Editorial accidentals above the staff Text Middle German by Valantin Hauszmann
T:Jep Dillentent
T:©
T:©
T:©
T:©
C:Valentin Haussmann
Z:©
%%score [ 1 2 3 ]
L:1/8
Q:1/4=101
M:4/4
K:C
V:1 treble nm="Soprano 1" snm="S 1"
V:2 treble nm="Soprano 2" snm="S 2"
V:3 treble-8 nm="Tenor" snm="T"
V:1
"^1)" z4 z2 d2 | B2 d2 G4 | z2 g2 e2 g2 | c2 e2 d3 c | B2 B2 A4 | z2 F2 AB c2- | c2 c2 c2 B2 | %7
w: Jep|Dil- len- tent,|der- sel- be|fent, wenn ihr _|_ ihn kennt|bey Jung- fer Jüt-|* ten sasz al-|
w: In|sol- cher ehr,|ge- dach- te|er, bald hin, _|_ bald her,|was er wolt brau-|* chen nur für|
 A4 z4 | z4 z2 d2 | e2 c2 d2 B2 | c2 A2 G3 g | a2 f2 g2 e2 | g6 ^f2 | g4 z4 | z2 F2 AB c2- | %15
w: lein,|das|dün- cket ihn sehr|hübsch und fein, das|dün- cket ihn sehr|hübsch und|fein,|bey Jung- fer Jüt-|
w: wort,|die|bey der Liebn we-|ren ge- hort, die|bey der Liebn we-|ren ge|hort,|was er wolt brau-|
 c2 c2 c2 B2 | A4 z4 | z4 z2 d2 | e2 c2 d2 B2 | c2 A2 G3 g | a2 ^f2 g2 e2 | g4 ^f4 | g8 |] %23
w: * fer sasz al-|lein,|das|dün- cket ihn sehr|hübsch unf fein, das|dün- cket ihn sehr|hübsch und|fein.|
w: * chen nur für|wort,|die|bey der Liebn we-|re, ge- hort, die|bey der Liebn we-|ren ge|hort.|
V:2
"^2)" z8 |"^1)" z2 d2 B2 d2 | G4 z2 c2 | A2 c2 F2 A2 | A2 ^G2 A2 ^F2 | ^FG A4 A2 | A6 G2 | %7
w: |Jep Dil- len-|tent, der-|sel- be fent, wenn|ihr ihn kennt, bey|Jung- fer Jüt- ten|sasz al-|
w: |Jep un- ver-|zagt, die|schö- ne Magd, gar|freund- lich sagt: mein|lie- be Jütt, eszt|ihr auch|
 ^F4 A2 B2 | G2 A2 ^F2 G2- | G2 A2 B4 | z2 d4 e2 | c2 d2 B2 c2- | cB BA/G/ A3 A | B4 z2 ^F2 | %14
w: lein, das dün-|cket ihn sehr hübsch|_ und fein,|das dün-|cket ihn sehr hübsch|_ _ _ _ _ _ und|fein bey|
w: speck? Sie lach-|te, da rürt sich|_ der Jeck,|sie lach-|te, da rürt sich|_ _ _ _ _ _ der|Jeck, mein|
 ^FG A4 A2 | A6 G2 | ^F4 A2 B2 | G2 A2 ^F2 G2- | G2 A2 B4 | z2 d4 e2 | c2 d2 B2 c2- | %21
w: Jung- fer Jüt- ten|sasz al-|lein, das dün-|cket ihn sehr hübsch|_ und fein,|das dün-|cket ihn sehr hübsch|
w: lie- be Jütt; eszt|ihr auch|Speck, sie lach-|te, da rürt sich|_ der Jeck,|sie lach-|te, da rürt sich|
 cB BA/G/ A2 A2 | B8 |] %23
w: _ _ _ _ _ _ und|fein.|
w: _ _ _ _ _ _ der|Jeck.|
V:3
"^1)""^4)" d4 B2 d2 |"^3)" G4 z2 g2 | e2 g2 c4 | z2 c2 d2 A2 | e4 z2 d2 |"^-natural" de f4 f2 | %6
w: Jep Dil- len-|tent, der-|sel- be fent,|wenn ihr ihn|kennt, bey|Jung- fer Jüt- ten|
w: Jep mei- net|schlecht, der|gu- te Knecht,|so mir es|recht, er|hetts ge- trof- fen|
 f6 g2 | d4 z2 d2 | e2 c2 d2 B2 | c2 A2 G2 g2 | a2 f2 g2 e2 | f2 d2 e2 c2 | e4 d4 | G4 z2 d2 | %14
w: sasz al-|lein, das|dün- cket ihn sehr|hübsch und fein, das|dün- cket ihn sehr|hübsch und fein, sehr|hübsch und|fein, bey|
w: un ver-|zacht, hier-|auff zu ihr noch|wei- ter sagt, hier-|auff zu ihr noch|wei- ter sagt, noch|wei- ter|sagt, er|
"^-natural" de f4 f2 | f6 g2 | d4 z2 d2 | e2 c2 d2 B2 | c2 A2 G2 g2 | a2 f2 g2 e2 | f2 d2 e2 c2 | %21
w: Jung- fer Jüt- ten|sasz al-|lein, das|dün- cket ihn sehr|hübsch und fein, das|dün- cket ihn sehr|hübsch und fein, sehr|
w: hetts ge- trof- fen|un- ver|zacht, hier-|auff zu ihr noch|wei- ter sagtn hier-|auff zu ihr noch|wei- ter sagt, noch|
 e4 d4 | G8 |] %23
w: hübsch und|fein.|
w: wei- ter|sagt:|

